X:1
T:Title
%%score 1 2 3
L:1/8
Q:1/4=120
M:4/4
K:F
V:1 treble nm="Grand Piano, Track 1"
V:2 bass nm="Grand Piano, Melody"
V:3 bass nm="Grand Piano, Track 3"
V:1
 A4 c2 c2 | A4 c4 | B2 A2 G4- | G4 G4 | G2 G2 A4 | c4 d2 c2 | A8 | c4 B2 A2 | G4 A4 | c2 B2 c4- | %10
 c4 c4 | F2 G2 G4 | d4 d2 c2 | [Ac]8 |] %14
V:2
 F,4 A,2[K:treble] C2 | F4 E4 | F2 D2 C4- | C4 C4 | C2 C2 C4 | A,4 B,2 G,2 | F,8 | %7
 A,4 B,2[K:treble] C2 | D4 E4 | F2 D2 C4- | C4[K:bass] G,4 | A,2 B,2 C4 | A,4 B,2 G,2 | F,8 |] %14
V:3
 F,4 F,2 E,2 | F,4 A,4 | F,2 G,2 C,4- | C,4 C,4 | C,2 C,2 F,4 | F,4 B,,2 D,2 | F,8 | F,4 G,2 A,2 | %8
 G,4 C4 | F,2 G,2 C,4- | C,4 E,4 | F,2 D,2 C,4 | D,4 B,,2 C,2 | F,8 |] %14

